papirus-arc-dark/48x48/places/distributor-logo-neon.svg

<?xml version="1.0" encoding="UTF-8" standalone="no"?>
<!-- Created with Inkscape (http://www.inkscape.org/) -->

<svg
   xmlns:dc="http://purl.org/dc/elements/1.1/"
   xmlns:cc="http://creativecommons.org/ns#"
   xmlns:rdf="http://www.w3.org/1999/02/22-rdf-syntax-ns#"
   xmlns:svg="http://www.w3.org/2000/svg"
   xmlns="http://www.w3.org/2000/svg"
   xmlns:sodipodi="http://sodipodi.sourceforge.net/DTD/sodipodi-0.dtd"
   xmlns:inkscape="http://www.inkscape.org/namespaces/inkscape"
   id="svg5048"
   height="48"
   width="48"
   version="1.1"
   inkscape:version="0.91 r13725"
   sodipodi:docname="distributor-logo-neon.svg">
  <sodipodi:namedview
     pagecolor="#ffffff"
     bordercolor="#666666"
     borderopacity="1"
     objecttolerance="10"
     gridtolerance="10"
     guidetolerance="10"
     inkscape:pageopacity="0"
     inkscape:pageshadow="2"
     inkscape:window-width="1600"
     inkscape:window-height="849"
     id="namedview14"
     showgrid="false"
     inkscape:zoom="1"
     inkscape:cx="21.008852"
     inkscape:cy="24"
     inkscape:window-x="0"
     inkscape:window-y="0"
     inkscape:window-maximized="1"
     inkscape:current-layer="svg5048" />
  <defs
     id="defs5050">
    <style
       id="current-color-scheme"
       type="text/css">.ColorScheme-Text {
        color:#31363b;
      }
      .ColorScheme-Background{
        color:#eff0f1;
      }
      .ColorScheme-ViewText {
        color:#31363b;
      }
      .ColorScheme-ViewBackground{
        color:#fcfcfc;
      }
      .ColorScheme-ViewHover {
        color:#3daee9;
      }
      .ColorScheme-ViewFocus{
        color:#3daee9;
      }
      .ColorScheme-ButtonText {
        color:#31363b;
      }
      .ColorScheme-ButtonBackground{
        color:#eff0f1;
      }
      .ColorScheme-ButtonHover {
        color:#3daee9;
      }
      .ColorScheme-ButtonFocus{
        color:#3daee9;
      }</style>
  </defs>
  <metadata
     id="metadata5053">
    <rdf:RDF>
      <cc:Work
         rdf:about="">
        <dc:format>image/svg+xml</dc:format>
        <dc:type
           rdf:resource="http://purl.org/dc/dcmitype/StillImage" />
        <dc:title></dc:title>
      </cc:Work>
    </rdf:RDF>
  </metadata>
  <path
     style="fill:#0079c1"
     inkscape:connector-curvature="0"
     d="M 44.003,24 C 44.12703,31.8657 39.0539,39.451 31.784,42.428 24.6424,45.5206 15.773,43.9283 10.199,38.4791 4.5542,33.234 2.4937,24.5921 5.1291,17.3541 c 2.5482,-7.5016 9.915,-13.029 17.841,-13.326 7.7057,-0.4977 15.403,3.9685 18.844,10.87 1.4403,2.8006 2.1925,5.9493 2.1885,9.102 z"
     id="path4286" />
  <path
     style="opacity:0.3"
     inkscape:connector-curvature="0"
     d="M 43.979,23.418 A 20,20 0 0 1 24,43 20,20 0 0 1 4.022,23.582 20,20 0 0 0 4,24 20,20 0 0 0 24,44 20,20 0 0 0 44,24 20,20 0 0 0 43.979,23.418 Z"
     id="path4255" />
  <path
     style="opacity:0.2;fill:#ffffff"
     inkscape:connector-curvature="0"
     d="M 24,4 A 20,20 0 0 0 4,24 20,20 0 0 0 4.0215,24.582 20,20 0 0 1 23.9995,5 20,20 0 0 1 43.9785,24.418 20,20 0 0 0 43.9995,24 a 20,20 0 0 0 -20,-20 z"
     id="path4260" />
  <path
     id="path4378"
     d="m 24,7 a 2,2 0 0 0 -1.785156,1.0976562 17,17 0 0 0 -8.894532,3.6933598 2,2 0 0 0 -0.605468,-0.105469 2,2 0 0 0 -1.44336,0.585937 2,2 0 0 0 -0.484375,2.042969 A 17,17 0 0 0 7.1152344,23.208984 2,2 0 0 0 6,25 a 2,2 0 0 0 1.0976562,1.785156 17,17 0 0 0 3.6933598,8.894532 2,2 0 0 0 0.480468,2.048828 2,2 0 0 0 2.042969,0.484375 17,17 0 0 0 8.894531,3.671875 A 2,2 0 0 0 24,43 a 2,2 0 0 0 1.785156,-1.097656 17,17 0 0 0 8.894532,-3.69336 2,2 0 0 0 2.048828,-0.480468 2,2 0 0 0 0.484375,-2.042969 17,17 0 0 0 3.671875,-8.894531 A 2,2 0 0 0 42,25 2,2 0 0 0 40.902344,23.214844 17,17 0 0 0 37.208984,14.320312 2,2 0 0 0 36.728516,12.271484 2,2 0 0 0 35.285156,11.685547 2,2 0 0 0 34.685547,11.787109 17,17 0 0 0 25.791016,8.1152344 2,2 0 0 0 24,7 Z m 0,1 a 1,1 0 0 1 1,1 1,1 0 0 1 -1,1 1,1 0 0 1 -1,-1 1,1 0 0 1 1,-1 z m 1.669922,2.099609 a 15,15 0 0 1 7.685547,3.19336 2,2 0 0 0 0.544922,1.80664 2,2 0 0 0 1.820312,0.542969 15,15 0 0 1 3.167969,7.695313 A 2,2 0 0 0 38,25 a 2,2 0 0 0 0.900391,1.669922 15,15 0 0 1 -3.191407,7.683594 2,2 0 0 0 -0.365234,-0.03906 2,2 0 0 0 -1.443359,0.585938 2,2 0 0 0 -0.542969,1.820312 15,15 0 0 1 -7.695313,3.167969 A 2,2 0 0 0 24,39 2,2 0 0 0 22.330078,39.900391 15,15 0 0 1 14.644531,36.707031 2,2 0 0 0 14.099609,34.900391 2,2 0 0 0 12.65625,34.314453 2,2 0 0 0 12.277344,34.355469 15,15 0 0 1 9.1113281,26.662109 2,2 0 0 0 10,25 2,2 0 0 0 9.0996094,23.330078 15,15 0 0 1 12.292969,15.644531 2,2 0 0 0 14.099609,15.099609 2,2 0 0 0 14.642578,13.279297 15,15 0 0 1 22.337891,10.111328 2,2 0 0 0 24,11 2,2 0 0 0 25.669922,10.099609 Z M 24,12 A 2,2 0 0 0 22.191406,13.152344 12,12 0 0 0 12,25 12,12 0 0 0 22.193359,36.855469 2,2 0 0 0 24,38 2,2 0 0 0 25.808594,36.847656 12,12 0 0 0 36,25 12,12 0 0 0 25.806641,13.144531 2,2 0 0 0 24,12 Z m -11.298828,0.685547 a 1,1 0 0 1 0.691406,0.292969 1,1 0 0 1 0,1.414062 1,1 0 0 1 -1.414062,0 1,1 0 0 1 0,-1.414062 1,1 0 0 1 0.722656,-0.292969 z m 22.597656,0 a 1,1 0 0 1 0.722656,0.292969 1,1 0 0 1 0,1.414062 1,1 0 0 1 -1.414062,0 1,1 0 0 1 0,-1.414062 1,1 0 0 1 0.691406,-0.292969 z M 24,13 a 1,1 0 0 1 1,1 1,1 0 0 1 -1,1 1,1 0 0 1 -1,-1 1,1 0 0 1 1,-1 z m -1.644531,2.138672 A 2,2 0 0 0 24,16 2,2 0 0 0 25.636719,15.146484 10,10 0 0 1 34,25 10,10 0 0 1 25.644531,34.861328 2,2 0 0 0 24,34 2,2 0 0 0 22.363281,34.853516 10,10 0 0 1 14,25 10,10 0 0 1 22.355469,15.138672 Z M 24,20 a 5,5 0 0 0 -5,5 5,5 0 0 0 5,5 5,5 0 0 0 5,-5 5,5 0 0 0 -5,-5 z M 8,24 a 1,1 0 0 1 1,1 1,1 0 0 1 -1,1 1,1 0 0 1 -1,-1 1,1 0 0 1 1,-1 z m 32,0 a 1,1 0 0 1 1,1 1,1 0 0 1 -1,1 1,1 0 0 1 -1,-1 1,1 0 0 1 1,-1 z M 24,35 a 1,1 0 0 1 1,1 1,1 0 0 1 -1,1 1,1 0 0 1 -1,-1 1,1 0 0 1 1,-1 z m -11.328125,0.314453 a 1,1 0 0 1 0.720703,0.292969 1,1 0 0 1 0,1.414062 1,1 0 0 1 -1.414062,0 1,1 0 0 1 0,-1.414062 1,1 0 0 1 0.693359,-0.292969 z m 22.65625,0 a 1,1 0 0 1 0.693359,0.292969 1,1 0 0 1 0,1.414062 1,1 0 0 1 -1.414062,0 1,1 0 0 1 0,-1.414062 1,1 0 0 1 0.720703,-0.292969 z M 24,40 a 1,1 0 0 1 1,1 1,1 0 0 1 -1,1 1,1 0 0 1 -1,-1 1,1 0 0 1 1,-1 z"
     style="opacity:0.2;fill:#000000;fill-opacity:1;stroke:none;stroke-width:1;stroke-linecap:round;stroke-linejoin:round;stroke-miterlimit:4;stroke-dasharray:none;stroke-opacity:1"
     inkscape:connector-curvature="0" />
  <path
     style="opacity:1;fill:#ffffff;fill-opacity:1;stroke:none;stroke-width:1;stroke-linecap:round;stroke-linejoin:round;stroke-miterlimit:4;stroke-dasharray:none;stroke-opacity:1"
     d="M 24 6 A 2 2 0 0 0 22.214844 7.0976562 A 17 17 0 0 0 13.320312 10.791016 A 2 2 0 0 0 12.714844 10.685547 A 2 2 0 0 0 11.271484 11.271484 A 2 2 0 0 0 10.787109 13.314453 A 17 17 0 0 0 7.1152344 22.208984 A 2 2 0 0 0 6 24 A 2 2 0 0 0 7.0976562 25.785156 A 17 17 0 0 0 10.791016 34.679688 A 2 2 0 0 0 11.271484 36.728516 A 2 2 0 0 0 13.314453 37.212891 A 17 17 0 0 0 22.208984 40.884766 A 2 2 0 0 0 24 42 A 2 2 0 0 0 25.785156 40.902344 A 17 17 0 0 0 34.679688 37.208984 A 2 2 0 0 0 36.728516 36.728516 A 2 2 0 0 0 37.212891 34.685547 A 17 17 0 0 0 40.884766 25.791016 A 2 2 0 0 0 42 24 A 2 2 0 0 0 40.902344 22.214844 A 17 17 0 0 0 37.208984 13.320312 A 2 2 0 0 0 36.728516 11.271484 A 2 2 0 0 0 35.285156 10.685547 A 2 2 0 0 0 34.685547 10.787109 A 17 17 0 0 0 25.791016 7.1152344 A 2 2 0 0 0 24 6 z M 24 7 A 1 1 0 0 1 25 8 A 1 1 0 0 1 24 9 A 1 1 0 0 1 23 8 A 1 1 0 0 1 24 7 z M 25.669922 9.0996094 A 15 15 0 0 1 33.355469 12.292969 A 2 2 0 0 0 33.900391 14.099609 A 2 2 0 0 0 35.720703 14.642578 A 15 15 0 0 1 38.888672 22.337891 A 2 2 0 0 0 38 24 A 2 2 0 0 0 38.900391 25.669922 A 15 15 0 0 1 35.708984 33.353516 A 2 2 0 0 0 35.34375 33.314453 A 2 2 0 0 0 33.900391 33.900391 A 2 2 0 0 0 33.357422 35.720703 A 15 15 0 0 1 25.662109 38.888672 A 2 2 0 0 0 24 38 A 2 2 0 0 0 22.330078 38.900391 A 15 15 0 0 1 14.644531 35.707031 A 2 2 0 0 0 14.099609 33.900391 A 2 2 0 0 0 12.65625 33.314453 A 2 2 0 0 0 12.277344 33.355469 A 15 15 0 0 1 9.1113281 25.662109 A 2 2 0 0 0 10 24 A 2 2 0 0 0 9.0996094 22.330078 A 15 15 0 0 1 12.292969 14.644531 A 2 2 0 0 0 14.099609 14.099609 A 2 2 0 0 0 14.642578 12.279297 A 15 15 0 0 1 22.337891 9.1113281 A 2 2 0 0 0 24 10 A 2 2 0 0 0 25.669922 9.0996094 z M 24 11 A 2 2 0 0 0 22.191406 12.152344 A 12 12 0 0 0 12 24 A 12 12 0 0 0 22.193359 35.855469 A 2 2 0 0 0 24 37 A 2 2 0 0 0 25.808594 35.847656 A 12 12 0 0 0 36 24 A 12 12 0 0 0 25.806641 12.144531 A 2 2 0 0 0 24 11 z M 12.701172 11.685547 A 1 1 0 0 1 13.392578 11.978516 A 1 1 0 0 1 13.392578 13.392578 A 1 1 0 0 1 11.978516 13.392578 A 1 1 0 0 1 11.978516 11.978516 A 1 1 0 0 1 12.701172 11.685547 z M 35.298828 11.685547 A 1 1 0 0 1 36.021484 11.978516 A 1 1 0 0 1 36.021484 13.392578 A 1 1 0 0 1 34.607422 13.392578 A 1 1 0 0 1 34.607422 11.978516 A 1 1 0 0 1 35.298828 11.685547 z M 24 12 A 1 1 0 0 1 25 13 A 1 1 0 0 1 24 14 A 1 1 0 0 1 23 13 A 1 1 0 0 1 24 12 z M 22.355469 14.138672 A 2 2 0 0 0 24 15 A 2 2 0 0 0 25.636719 14.146484 A 10 10 0 0 1 34 24 A 10 10 0 0 1 25.644531 33.861328 A 2 2 0 0 0 24 33 A 2 2 0 0 0 22.363281 33.853516 A 10 10 0 0 1 14 24 A 10 10 0 0 1 22.355469 14.138672 z M 24 19 A 5 5 0 0 0 19 24 A 5 5 0 0 0 24 29 A 5 5 0 0 0 29 24 A 5 5 0 0 0 24 19 z M 8 23 A 1 1 0 0 1 9 24 A 1 1 0 0 1 8 25 A 1 1 0 0 1 7 24 A 1 1 0 0 1 8 23 z M 40 23 A 1 1 0 0 1 41 24 A 1 1 0 0 1 40 25 A 1 1 0 0 1 39 24 A 1 1 0 0 1 40 23 z M 24 34 A 1 1 0 0 1 25 35 A 1 1 0 0 1 24 36 A 1 1 0 0 1 23 35 A 1 1 0 0 1 24 34 z M 12.671875 34.314453 A 1 1 0 0 1 13.392578 34.607422 A 1 1 0 0 1 13.392578 36.021484 A 1 1 0 0 1 11.978516 36.021484 A 1 1 0 0 1 11.978516 34.607422 A 1 1 0 0 1 12.671875 34.314453 z M 35.328125 34.314453 A 1 1 0 0 1 36.021484 34.607422 A 1 1 0 0 1 36.021484 36.021484 A 1 1 0 0 1 34.607422 36.021484 A 1 1 0 0 1 34.607422 34.607422 A 1 1 0 0 1 35.328125 34.314453 z M 24 39 A 1 1 0 0 1 25 40 A 1 1 0 0 1 24 41 A 1 1 0 0 1 23 40 A 1 1 0 0 1 24 39 z "
     id="path4149" />
</svg>

<?xml version="1.0" encoding="UTF-8" standalone="no"?>
<svg id="svg5048" xmlns:rdf="http://www.w3.org/1999/02/22-rdf-syntax-ns#" xmlns="http://www.w3.org/2000/svg" height="48" width="48" version="1.1" xmlns:cc="http://creativecommons.org/ns#" xmlns:dc="http://purl.org/dc/elements/1.1/">
 <defs id="defs5050">
  <style id="current-color-scheme" type="text/css">.ColorScheme-Text {
        color:#31363b;
      }
      .ColorScheme-Background{
        color:#eff0f1;
      }
      .ColorScheme-ViewText {
        color:#31363b;
      }
      .ColorScheme-ViewBackground{
        color:#fcfcfc;
      }
      .ColorScheme-ViewHover {
        color:#3daee9;
      }
      .ColorScheme-ViewFocus{
        color:#3daee9;
      }
      .ColorScheme-ButtonText {
        color:#31363b;
      }
      .ColorScheme-ButtonBackground{
        color:#eff0f1;
      }
      .ColorScheme-ButtonHover {
        color:#3daee9;
      }
      .ColorScheme-ButtonFocus{
        color:#3daee9;
      }</style>
 </defs>
 <metadata id="metadata5053">
  <rdf:RDF>
   <cc:Work rdf:about="">
    <dc:format>image/svg+xml</dc:format>
    <dc:type rdf:resource="http://purl.org/dc/dcmitype/StillImage"/>
    <dc:title/>
   </cc:Work>
  </rdf:RDF>
 </metadata>
 <path id="path4286" fill="#0079c1" d="m44.003 24c0.124 7.866-4.949 15.451-12.219 18.428-7.142 3.093-16.011 1.5-21.585-3.949-5.6448-5.245-7.7053-13.887-5.0699-21.125 2.5482-7.5016 9.915-13.029 17.841-13.326 7.7057-0.4977 15.403 3.9685 18.844 10.87 1.4403 2.8006 2.1925 5.9493 2.1885 9.102z"/>
 <path id="path4255" opacity=".2" d="m43.979 24.418a20 20 0 0 1 -19.979 19.582 20 20 0 0 1 -19.978 -19.418 20 20 0 0 0 -0.022 0.418 20 20 0 0 0 20 20 20 20 0 0 0 20 -20 20 20 0 0 0 -0.021 -0.582z"/>
 <path id="path4260" opacity=".2" fill="#fff" d="m24 4a20 20 0 0 0 -20 20 20 20 0 0 0 0.0215 0.582 20 20 0 0 1 19.978 -19.582 20 20 0 0 1 19.978 19.418 20 20 0 0 0 0.022 -0.418 20 20 0 0 0 -20 -20z"/>
 <path id="path4378" opacity=".2" d="m24 7a2 2 0 0 0 -1.7852 1.0977 17 17 0 0 0 -8.8945 3.6934 2 2 0 0 0 -0.60547 -0.10547 2 2 0 0 0 -1.4434 0.58594 2 2 0 0 0 -0.48438 2.043 17 17 0 0 0 -3.6728 8.895 2 2 0 0 0 -1.1152 1.791 2 2 0 0 0 1.0977 1.7852 17 17 0 0 0 3.6934 8.8945 2 2 0 0 0 0.48047 2.0488 2 2 0 0 0 2.043 0.48438 17 17 0 0 0 8.8945 3.6719 2 2 0 0 0 1.791 1.115 2 2 0 0 0 1.7852 -1.0977 17 17 0 0 0 8.8945 -3.6934 2 2 0 0 0 2.0488 -0.48047 2 2 0 0 0 0.48438 -2.043 17 17 0 0 0 3.6719 -8.8945 2 2 0 0 0 1.115 -1.791 2 2 0 0 0 -1.098 -1.785 17 17 0 0 0 -3.693 -8.895 2 2 0 0 0 -0.48 -2.049 2 2 0 0 0 -1.444 -0.585 2 2 0 0 0 -0.599 0.101 17 17 0 0 0 -8.895 -3.6718 2 2 0 0 0 -1.791 -1.1152zm0 1a1 1 0 0 1 1 1 1 1 0 0 1 -1 1 1 1 0 0 1 -1 -1 1 1 0 0 1 1 -1zm1.6699 2.0996a15 15 0 0 1 7.6855 3.1934 2 2 0 0 0 0.54492 1.8066 2 2 0 0 0 1.8203 0.54297 15 15 0 0 1 3.168 7.6953 2 2 0 0 0 -0.889 1.662 2 2 0 0 0 0.90039 1.6699 15 15 0 0 1 -3.1914 7.6836 2 2 0 0 0 -0.36523 -0.03906 2 2 0 0 0 -1.4434 0.58594 2 2 0 0 0 -0.54297 1.8203 15 15 0 0 1 -7.6953 3.168 2 2 0 0 0 -1.662 -0.889 2 2 0 0 0 -1.67 0.9 15 15 0 0 1 -7.685 -3.193 2 2 0 0 0 -0.545 -1.807 2 2 0 0 0 -1.444 -0.586 2 2 0 0 0 -0.379 0.041 15 15 0 0 1 -3.1657 -7.693 2 2 0 0 0 0.8887 -1.662 2 2 0 0 0 -0.9004 -1.67 15 15 0 0 1 3.1934 -7.685 2 2 0 0 0 1.807 -0.545 2 2 0 0 0 0.543 -1.821 15 15 0 0 1 7.695 -3.168 2 2 0 0 0 1.662 0.889 2 2 0 0 0 1.67 -0.9zm-1.67 1.9a2 2 0 0 0 -1.809 1.152 12 12 0 0 0 -10.191 11.848 12 12 0 0 0 10.193 11.855 2 2 0 0 0 1.807 1.145 2 2 0 0 0 1.809 -1.152 12 12 0 0 0 10.191 -11.848 12 12 0 0 0 -10.193 -11.855 2 2 0 0 0 -1.807 -1.145zm-11.299 0.68555a1 1 0 0 1 0.69141 0.29297 1 1 0 0 1 0 1.4141 1 1 0 0 1 -1.4141 0 1 1 0 0 1 0 -1.4141 1 1 0 0 1 0.72266 -0.29297zm22.598 0a1 1 0 0 1 0.72266 0.29297 1 1 0 0 1 0 1.4141 1 1 0 0 1 -1.4141 0 1 1 0 0 1 0 -1.4141 1 1 0 0 1 0.69141 -0.29297zm-11.299 0.314a1 1 0 0 1 1 1 1 1 0 0 1 -1 1 1 1 0 0 1 -1 -1 1 1 0 0 1 1 -1zm-1.6445 2.1387a2 2 0 0 0 1.644 0.861 2 2 0 0 0 1.637 -0.854 10 10 0 0 1 8.363 9.854 10 10 0 0 1 -8.355 9.861 2 2 0 0 0 -1.645 -0.861 2 2 0 0 0 -1.637 0.854 10 10 0 0 1 -8.363 -9.854 10 10 0 0 1 8.355 -9.861zm1.644 4.861a5 5 0 0 0 -5 5 5 5 0 0 0 5 5 5 5 0 0 0 5 -5 5 5 0 0 0 -5 -5zm-16 4a1 1 0 0 1 1 1 1 1 0 0 1 -1 1 1 1 0 0 1 -1 -1 1 1 0 0 1 1 -1zm32 0a1 1 0 0 1 1 1 1 1 0 0 1 -1 1 1 1 0 0 1 -1 -1 1 1 0 0 1 1 -1zm-16 11a1 1 0 0 1 1 1 1 1 0 0 1 -1 1 1 1 0 0 1 -1 -1 1 1 0 0 1 1 -1zm-11.328 0.31445a1 1 0 0 1 0.7207 0.29297 1 1 0 0 1 0 1.4141 1 1 0 0 1 -1.4141 0 1 1 0 0 1 0 -1.4141 1 1 0 0 1 0.69336 -0.29297zm22.656 0a1 1 0 0 1 0.69336 0.29297 1 1 0 0 1 0 1.4141 1 1 0 0 1 -1.4141 0 1 1 0 0 1 0 -1.4141 1 1 0 0 1 0.7207 -0.29297zm-11.328 4.686a1 1 0 0 1 1 1 1 1 0 0 1 -1 1 1 1 0 0 1 -1 -1 1 1 0 0 1 1 -1z"/>
 <path id="path4149" d="m24 6a2 2 0 0 0 -1.785 1.0977 17 17 0 0 0 -8.895 3.6933 2 2 0 0 0 -0.605 -0.105 2 2 0 0 0 -1.444 0.585 2 2 0 0 0 -0.484 2.043 17 17 0 0 0 -3.6718 8.895 2 2 0 0 0 -1.1152 1.791 2 2 0 0 0 1.0977 1.785 17 17 0 0 0 3.6933 8.895 2 2 0 0 0 0.48 2.049 2 2 0 0 0 2.043 0.484 17 17 0 0 0 8.895 3.672 2 2 0 0 0 1.791 1.115 2 2 0 0 0 1.785 -1.098 17 17 0 0 0 8.895 -3.693 2 2 0 0 0 2.049 -0.48 2 2 0 0 0 0.484 -2.043 17 17 0 0 0 3.672 -8.895 2 2 0 0 0 1.115 -1.791 2 2 0 0 0 -1.098 -1.785 17 17 0 0 0 -3.693 -8.895 2 2 0 0 0 -0.48 -2.049 2 2 0 0 0 -1.444 -0.585 2 2 0 0 0 -0.599 0.101 17 17 0 0 0 -8.895 -3.6718 2 2 0 0 0 -1.791 -1.1152zm0 1a1 1 0 0 1 1 1 1 1 0 0 1 -1 1 1 1 0 0 1 -1 -1 1 1 0 0 1 1 -1zm1.67 2.0996a15 15 0 0 1 7.685 3.1934 2 2 0 0 0 0.545 1.807 2 2 0 0 0 1.821 0.543 15 15 0 0 1 3.168 7.695 2 2 0 0 0 -0.889 1.662 2 2 0 0 0 0.9 1.67 15 15 0 0 1 -3.191 7.684 2 2 0 0 0 -0.365 -0.04 2 2 0 0 0 -1.444 0.586 2 2 0 0 0 -0.543 1.821 15 15 0 0 1 -7.695 3.168 2 2 0 0 0 -1.662 -0.889 2 2 0 0 0 -1.67 0.9 15 15 0 0 1 -7.685 -3.193 2 2 0 0 0 -0.545 -1.807 2 2 0 0 0 -1.444 -0.586 2 2 0 0 0 -0.379 0.041 15 15 0 0 1 -3.1657 -7.693 2 2 0 0 0 0.8887 -1.662 2 2 0 0 0 -0.9004 -1.67 15 15 0 0 1 3.1934 -7.685 2 2 0 0 0 1.807 -0.545 2 2 0 0 0 0.543 -1.821 15 15 0 0 1 7.695 -3.1677 2 2 0 0 0 1.662 0.8887 2 2 0 0 0 1.67 -0.9004zm-1.67 1.9004a2 2 0 0 0 -1.809 1.152 12 12 0 0 0 -10.191 11.848 12 12 0 0 0 10.193 11.855 2 2 0 0 0 1.807 1.145 2 2 0 0 0 1.809 -1.152 12 12 0 0 0 10.191 -11.848 12 12 0 0 0 -10.193 -11.855 2 2 0 0 0 -1.807 -1.145zm-11.299 0.686a1 1 0 0 1 0.692 0.293 1 1 0 0 1 0 1.414 1 1 0 0 1 -1.414 0 1 1 0 0 1 0 -1.414 1 1 0 0 1 0.722 -0.293zm22.598 0a1 1 0 0 1 0.722 0.293 1 1 0 0 1 0 1.414 1 1 0 0 1 -1.414 0 1 1 0 0 1 0 -1.414 1 1 0 0 1 0.692 -0.293zm-11.299 0.314a1 1 0 0 1 1 1 1 1 0 0 1 -1 1 1 1 0 0 1 -1 -1 1 1 0 0 1 1 -1zm-1.645 2.139a2 2 0 0 0 1.645 0.861 2 2 0 0 0 1.637 -0.854 10 10 0 0 1 8.363 9.854 10 10 0 0 1 -8.355 9.861 2 2 0 0 0 -1.645 -0.861 2 2 0 0 0 -1.637 0.854 10 10 0 0 1 -8.363 -9.854 10 10 0 0 1 8.355 -9.861zm1.645 4.861a5 5 0 0 0 -5 5 5 5 0 0 0 5 5 5 5 0 0 0 5 -5 5 5 0 0 0 -5 -5zm-16 4a1 1 0 0 1 1 1 1 1 0 0 1 -1 1 1 1 0 0 1 -1 -1 1 1 0 0 1 1 -1zm32 0a1 1 0 0 1 1 1 1 1 0 0 1 -1 1 1 1 0 0 1 -1 -1 1 1 0 0 1 1 -1zm-16 11a1 1 0 0 1 1 1 1 1 0 0 1 -1 1 1 1 0 0 1 -1 -1 1 1 0 0 1 1 -1zm-11.328 0.314a1 1 0 0 1 0.721 0.293 1 1 0 0 1 0 1.414 1 1 0 0 1 -1.414 0 1 1 0 0 1 0 -1.414 1 1 0 0 1 0.693 -0.293zm22.656 0a1 1 0 0 1 0.693 0.293 1 1 0 0 1 0 1.414 1 1 0 0 1 -1.414 0 1 1 0 0 1 0 -1.414 1 1 0 0 1 0.721 -0.293zm-11.328 4.686a1 1 0 0 1 1 1 1 1 0 0 1 -1 1 1 1 0 0 1 -1 -1 1 1 0 0 1 1 -1z" fill="#fff"/>
</svg>
